src/icons/git-pull-request.svg

<svg width="16" height="16" viewBox="0 0 16 16" fill="none" xmlns="http://www.w3.org/2000/svg">
<path fill-rule="evenodd" clip-rule="evenodd" d="M5.61594 4.92781C5.34304 5.33911 4.95319 5.66074 4.49705 5.84982C4.34891 5.91025 4.03897 5.98822 4.03897 5.98822V10.9959C4.19686 11.0271 4.35086 11.0739 4.499 11.1363C4.95513 11.3273 5.34304 11.647 5.61789 12.0583C5.89079 12.4696 6.03699 12.953 6.03699 13.4462C6.04478 13.7893 5.98046 14.1304 5.84791 14.4462C5.72315 14.7483 5.53992 15.0232 5.30796 15.2551C5.07794 15.4871 4.80114 15.6703 4.499 15.7951C4.18322 15.9276 3.84209 15.9919 3.49902 15.9842C3.00585 15.9861 2.52243 15.8399 2.11113 15.5651C1.69983 15.2922 1.3782 14.9023 1.18912 14.4462C1.00198 13.9881 0.953253 13.4852 1.04877 12.9998C1.14428 12.5144 1.38015 12.068 1.72907 11.7172C2.07799 11.3741 2.51853 11.1382 2.99805 11.0369V5.94923C2.52048 5.84592 2.07994 5.61201 1.72907 5.26893C1.38015 4.91806 1.14428 4.47168 1.04877 3.9863C0.951304 3.50093 1.00004 2.99802 1.18912 2.53993C1.3782 2.0838 1.69983 1.69394 2.11113 1.42105C2.52048 1.1462 3.0039 1 3.49902 1C3.84014 0.994152 4.18127 1.05848 4.49705 1.18908C4.79919 1.31383 5.07404 1.49707 5.30601 1.72903C5.53797 1.961 5.7212 2.2378 5.84596 2.53993C5.97851 2.85572 6.04284 3.19684 6.03504 3.53992C6.03699 4.03309 5.89079 4.51651 5.61594 4.92781ZM4.85962 12.7893C4.73097 12.5495 4.53994 12.3487 4.30797 12.2103C4.07601 12.07 3.80896 11.9959 3.538 11.9998C3.24171 11.9998 2.95322 12.0856 2.70761 12.2493C2.46005 12.417 2.26512 12.6528 2.14816 12.9296C2.03706 13.2025 2.00977 13.5008 2.06824 13.7893C2.12477 14.0797 2.26707 14.3487 2.47759 14.5592C2.68812 14.7697 2.95517 14.912 3.24756 14.9686C3.53606 15.0271 3.8343 14.9998 4.1072 14.8887C4.38399 14.7717 4.61986 14.5768 4.7875 14.3292C4.93759 14.1031 5.02336 13.8399 5.037 13.569C5.0487 13.298 4.98827 13.029 4.85962 12.7893ZM2.70761 4.74068C2.95517 4.90247 3.24366 4.99019 3.538 4.99019C3.80896 4.99019 4.07601 4.91611 4.30797 4.77966C4.53994 4.63931 4.73097 4.44049 4.85962 4.20073C4.98827 3.96096 5.05065 3.69196 5.037 3.42101C5.02336 3.15006 4.93759 2.88691 4.7875 2.66079C4.61986 2.41323 4.38399 2.2183 4.1072 2.10135C3.8343 1.99024 3.53606 1.96295 3.24756 2.02142C2.95712 2.07795 2.68812 2.22025 2.47759 2.43077C2.26707 2.6413 2.12477 2.90835 2.06824 3.20074C2.00977 3.48924 2.03706 3.78748 2.14816 4.06038C2.26512 4.33718 2.46005 4.57304 2.70761 4.74068ZM13.0368 11.0369C13.5164 11.1344 13.9588 11.3722 14.3058 11.7172C14.7717 12.187 15.0348 12.8244 15.0309 13.4832C15.0329 13.9764 14.8867 14.4598 14.6119 14.8711C14.339 15.2824 13.9491 15.6041 13.493 15.7931C13.0368 15.9842 12.532 16.0349 12.0466 15.9393C11.5612 15.8438 11.1148 15.606 10.764 15.2551C10.415 14.9043 10.1753 14.4579 10.0798 13.9725C9.98425 13.4871 10.0349 12.9842 10.226 12.5261C10.4189 12.0739 10.7386 11.684 11.146 11.4073C11.4131 11.224 11.7172 11.0993 12.0349 11.0369V5.48922C12.0349 5.09157 11.877 4.70951 11.5963 4.42881C11.3156 4.14811 10.9336 3.99022 10.5359 3.99022H8.68603L9.95501 5.25921L9.24547 5.96875L7.11685 3.84013V3.14033L9.24742 1.00977L9.95696 1.72125L8.68798 2.99024H10.5378C10.8653 2.98829 11.1909 3.05262 11.4949 3.17737C11.799 3.30212 12.0758 3.48731 12.3078 3.71927C12.5398 3.95124 12.7249 4.22803 12.8497 4.53212C12.9745 4.83426 13.0388 5.15979 13.0368 5.48922V11.0369ZM13.5943 14.5456C13.8399 14.3019 13.992 13.9803 14.0271 13.6353C14.0622 13.2922 13.9764 12.9452 13.7854 12.6567C13.6177 12.4092 13.3819 12.2143 13.1051 12.0973C12.8322 11.9862 12.5339 11.9589 12.2454 12.0174C11.955 12.0739 11.686 12.2162 11.4755 12.4267C11.2649 12.6372 11.1226 12.9043 11.0661 13.1967C11.0076 13.4852 11.0349 13.7834 11.146 14.0563C11.263 14.3331 11.4579 14.569 11.7055 14.7366C11.994 14.9277 12.339 15.0134 12.684 14.9783C13.0271 14.9433 13.3507 14.7912 13.5943 14.5456Z" fill="#C5C5C5"/>
</svg>

<svg width="16" height="16" xmlns="http://www.w3.org/2000/svg"><path fill-rule="evenodd" clip-rule="evenodd" d="M5.616 4.928a2.487 2.487 0 0 1-1.119.922c-.148.06-.458.138-.458.138v5.008a2.51 2.51 0 0 1 1.579 1.062c.273.412.419.895.419 1.388.008.343-.057.684-.19 1A2.485 2.485 0 0 1 3.5 15.984a2.482 2.482 0 0 1-1.388-.419A2.487 2.487 0 0 1 1.05 13c.095-.486.331-.932.68-1.283.349-.343.79-.579 1.269-.68V5.949a2.6 2.6 0 0 1-1.269-.68 2.503 2.503 0 0 1-.68-1.283 2.487 2.487 0 0 1 1.06-2.565A2.49 2.49 0 0 1 3.5 1a2.504 2.504 0 0 1 1.807.729 2.493 2.493 0 0 1 .729 1.81c.002.494-.144.978-.42 1.389zm-.756 7.861a1.5 1.5 0 0 0-.552-.579 1.45 1.45 0 0 0-.77-.21 1.495 1.495 0 0 0-1.47 1.79 1.493 1.493 0 0 0 1.18 1.179c.288.058.586.03.86-.08.276-.117.512-.312.68-.56.15-.226.235-.49.249-.76a1.51 1.51 0 0 0-.177-.78zM2.708 4.741c.247.161.536.25.83.25.271 0 .538-.075.77-.211a1.514 1.514 0 0 0 .729-1.359 1.513 1.513 0 0 0-.25-.76 1.551 1.551 0 0 0-.68-.56 1.49 1.49 0 0 0-.86-.08 1.494 1.494 0 0 0-1.179 1.18c-.058.288-.03.586.08.86.117.276.312.512.56.68zm10.329 6.296c.48.097.922.335 1.269.68.466.47.729 1.107.725 1.766.002.493-.144.977-.42 1.388a2.499 2.499 0 0 1-4.532-.899 2.5 2.5 0 0 1 1.067-2.565c.267-.183.571-.308.889-.37V5.489a1.5 1.5 0 0 0-1.5-1.499H8.687l1.269 1.27-.71.709L7.117 3.84v-.7l2.13-2.13.71.711-1.269 1.27h1.85a2.484 2.484 0 0 1 2.312 1.541c.125.302.189.628.187.957v5.548zm.557 3.509a1.493 1.493 0 0 0 .191-1.89 1.552 1.552 0 0 0-.68-.559 1.49 1.49 0 0 0-.86-.08 1.493 1.493 0 0 0-1.179 1.18 1.49 1.49 0 0 0 .08.86 1.496 1.496 0 0 0 2.448.49z"/></svg>
